X: 172
T: No_94_Song_of_the_Thunderbirds.krn
%%abc-version 2.0
%%abcx-abcm2ps-target-version 5.9.1 (29 Sep 2008)
%%abc-creator hum2abc beta
%%abcx-conversion-date 2020/08/10 18:54:56
%%gracespace 0 6 6
%%humdrum-veritas 1294841606
%%humdrum-veritas-data 3710113503
%%linebreak <none>
%%barnumbers 0
L: 1/8
M: 3/4
%%staves {1 2}
V: 1 clef=bass
V: 2 clef=bass
K: Bb
[V:1] [K:clef=bass][M:3/4]D4B,2 ||  
[V:2] [K:clef=bass][M:3/4](3!accent!G,, z G,, (3!accent!G,, z G,, (3!accent!G,, z G,, ||  
[V:1] [M:2/4]D4 | 
[V:2] [M:2/4]z4 | 
[V:1] B,D (3DB,G, ||  
[V:2] z4 ||  
[V:1] [M:3/4]G,>G,G,7/G,/ | 
[V:2] [M:3/4]z6 | 
[V:1] G,6 | 
[V:2] z6 | 
[V:1] G,G,G,2G,B, ||  
[V:2] z6 ||  
[V:1] [M:2/4]B,4 | 
[V:2] [M:2/4]z4 | 
[V:1] G,B, (3DB,G, ||  
[V:2] z4 ||  
[V:1] [M:3/4]G,>G,G,7/G,/ | 
[V:2] [M:3/4]z6 | 
[V:1] G,6 | 
[V:2] z6 | 
[V:1] D2B,2(3DG,G, ||  
[V:2] z6 ||  
[V:1] [M:2/4]G,4 | 
[V:2] [M:2/4]z4 | 
[V:1] (3E,G,G, E,D, ||  
[V:2] z4 ||  
[V:1] [M:3/4]D,>D,D,3D, | 
[V:2] [M:3/4]z6 | 
[V:1] D,6 | 
[V:2] z6 | 
[V:1] G,G,G,2D,E, ||  
[V:2] z6 ||  
[V:1] [M:2/4]D,4 | 
[V:2] [M:2/4]z4 | 
[V:1] (3B,,D,D, B,,B,, ||  
[V:2] z4 ||  
[V:1] [M:3/4]G,,2B,,B,, B,,A,, | 
[V:2] [M:3/4]z6 | 
[V:1] G,,>G,,G,,4 |]  
[V:2] z6 |]  


